images/wl-icons/dollar.svg

<svg xmlns="http://www.w3.org/2000/svg" xmlns:xlink="http://www.w3.org/1999/xlink" id="dollar-Capa_1" xml:space="preserve" height="18" viewBox="0 0 12.25 17.57" width="12" version="1.1" y="0px" x="0px" enable-background="new 0 0 12.25 17.57">		<path d="m6.944 7.323c-0.058-0.012-0.103-0.025-0.159-0.037v-2.012c0.93 0.15 1.913 0.558 2.83 1.202l1.786-2.523c-1.249-1.003-2.75-1.576-4.616-1.689v-1.766h-0.899v1.749c-2.967 0.079-4.781 1.78-4.781 4.118v0.038c0 2.624 2.078 3.408 4.781 4.032v2.118c-1.205-0.153-2.353-0.657-3.398-1.49l-1.989 2.375c1.432 1.281 3.347 1.985 5.388 2.11v1.523h0.899v-1.506c2.992-0.079 4.967-1.627 4.967-4.19v-0.037c-0.001-2.411-1.843-3.37-4.809-4.015zm-2.228-1.252v-0.037c0-0.437 0.388-0.788 1.17-0.821v1.84c-0.909-0.277-1.17-0.533-1.17-0.982zm3.427 5.655c0 0.528-0.478 0.851-1.357 0.879v-1.938c1.061 0.309 1.357 0.585 1.357 1.021v0.038z" fill="#fff"/></svg>

<?xml version="1.0" encoding="utf-8"?>
<!DOCTYPE svg PUBLIC "-//W3C//DTD SVG 1.1//EN" "http://www.w3.org/Graphics/SVG/1.1/DTD/svg11.dtd"><svg xmlns="http://www.w3.org/2000/svg" xmlns:xlink="http://www.w3.org/1999/xlink" viewBox="0 0 12.25 17.57" height="17.57px" xml:space="preserve" x="0px" y="0px" id="Capa_1" width="12.25px" version="1.1" enable-background="new 0 0 12.25 17.57">
  <g>
    <g>
      <path fill="#FFFFFF" d="M6.944,7.323C6.886,7.311,6.841,7.298,6.785,7.286V5.274c0.93,0.15,1.913,0.558,2.83,1.202l1.786-2.523    c-1.249-1.003-2.75-1.576-4.616-1.689V0.498H5.886v1.749c-2.967,0.079-4.781,1.78-4.781,4.118v0.038    c0,2.624,2.078,3.408,4.781,4.032v2.118c-1.205-0.153-2.353-0.657-3.398-1.49l-1.989,2.375c1.432,1.281,3.347,1.985,5.388,2.11    v1.523h0.899v-1.506c2.992-0.079,4.967-1.627,4.967-4.19v-0.037C11.752,8.927,9.91,7.968,6.944,7.323z M4.716,6.071V6.034    c0-0.437,0.388-0.788,1.17-0.821v1.84C4.977,6.776,4.716,6.52,4.716,6.071z M8.143,11.726c0,0.528-0.478,0.851-1.357,0.879v-1.938    c1.061,0.309,1.357,0.585,1.357,1.021V11.726z" />
    </g>
  </g>
</svg>
